X:204
T:The Eliza
O:No 204 Page 100 William Clarke of Feltwell
M:6/8
L:1/8
N:No repeat marks at end of B music.
K:G
decB2B|AGAG2D|BAB cde|dec B2A|decB2B|AGAG2g|efg dBG|({B}A)GAG2z::dcde2e|fef gdB|cac BgB|AcB ABc|d2d ede|f2f gfg|adB ABc|dfa gf"Da Capo"e||

